img/RE.svg

<svg width="100" height="100" viewBox="0 0 100 100" version="1.1" xmlns="http://www.w3.org/2000/svg" xmlns:xlink="http://www.w3.org/1999/xlink">
<title>RE</title>
<desc>Created using Figma</desc>
<g id="Canvas" transform="translate(308 69)">
<g id="RE">
<g id="Rectangle">
<use xlink:href="#path0_fill" transform="translate(-308 -69)" fill="#724DC8"/>
</g>
<g id="RE">
<use xlink:href="#path1_fill" transform="translate(-288 -37)" fill="#FFFFFF"/>
</g>
</g>
</g>
<defs>
<path id="path0_fill" d="M 0 0L 100 0L 100 100L 0 100L 0 0Z"/>
<path id="path1_fill" d="M 20.9062 42.3438L 13.4375 42.3438L 13.4375 59L 4.0625 59L 4.0625 13.5L 20.9688 13.5C 26.3438 13.5 30.4896 14.6979 33.4062 17.0938C 36.3229 19.4896 37.7812 22.875 37.7812 27.25C 37.7812 30.3542 37.1042 32.9479 35.75 35.0312C 34.4167 37.0938 32.3854 38.7396 29.6562 39.9688L 39.5 58.5625L 39.5 59L 29.4375 59L 20.9062 42.3438ZM 13.4375 34.75L 21 34.75C 23.3542 34.75 25.1771 34.1562 26.4688 32.9688C 27.7604 31.7604 28.4062 30.1042 28.4062 28C 28.4062 25.8542 27.7917 24.1667 26.5625 22.9375C 25.3542 21.7083 23.4896 21.0938 20.9688 21.0938L 13.4375 21.0938L 13.4375 34.75ZM 72.3125 39.2812L 54.3125 39.2812L 54.3125 51.4688L 75.4375 51.4688L 75.4375 59L 44.9375 59L 44.9375 13.5L 75.375 13.5L 75.375 21.0938L 54.3125 21.0938L 54.3125 31.9375L 72.3125 31.9375L 72.3125 39.2812Z"/>
</defs>
</svg>

<svg width="100" height="100" viewBox="0 0 100 100" xmlns="http://www.w3.org/2000/svg" xmlns:xlink="http://www.w3.org/1999/xlink"><use xlink:href="#path0_fill" fill="#724DC8"/><use xlink:href="#path1_fill" transform="translate(20 32)" fill="#FFF"/><defs><path id="path0_fill" d="M0 0h100v100H0V0z"/><path id="path1_fill" d="M20.906 42.344h-7.468V59H4.062V13.5H20.97c5.375 0 9.52 1.198 12.437 3.594s4.375 5.781 4.375 10.156c0 3.104-.677 5.698-2.031 7.781-1.333 2.063-3.365 3.709-6.094 4.938L39.5 58.562V59H29.437l-8.53-16.656zm-7.468-7.594H21c2.354 0 4.177-.594 5.469-1.781 1.291-1.209 1.937-2.865 1.937-4.969 0-2.146-.614-3.833-1.843-5.063-1.209-1.229-3.073-1.843-5.594-1.843h-7.532V34.75zm58.874 4.531h-18V51.47h21.126V59h-30.5V13.5h30.437v7.594H54.312v10.843h18v7.344z"/></defs></svg>
